X:16
T:Slegg's Hornpipe. JJo2.016
Q:1/2=70
M:C|
B:J.Johnson Choice Collection Vol 2 after c1750
Z:vmp.Mike Hicken 2014 www.village-music-project.org.uk
L:1/8
N:NB 7th note bar 13 could be B or c
K:Gm
g4 (bagf)|(gedc) (fdcB)|(ecBA) (dBAG)|(bdc=B) (cbag) |(acBA) (Bagf)|
(gBcB) (Agfe)|fABA Gced|cBAG G2^F2||(def2) (=Bcd2)|
Gfed ed c2|(cd e2) (ABc2)|Fedc BA B2|dBGB DG"NB"BD|cB c4 d2|
cBAG Fedc|BA c4 (g/a/b)|a2 c4 BA|Bd g4 fe|d^FGc B2A2|G8|]
W:
W:The first strain twice and the last but once
